src/topics/icons/smashingmagazine.svg

<?xml version="1.0" encoding="UTF-8" standalone="no"?>
<svg width="256px" height="256px" viewBox="0 0 256 256" version="1.1" xmlns="http://www.w3.org/2000/svg" xmlns:xlink="http://www.w3.org/1999/xlink" preserveAspectRatio="xMidYMid">
    <defs>
        <radialGradient cx="49.2816347%" cy="43.2743042%" fx="49.2816347%" fy="43.2743042%" r="65.6831935%" id="radialGradient-1">
            <stop stop-color="#F8953E" offset="0%"></stop>
            <stop stop-color="#F36E3E" offset="100%"></stop>
        </radialGradient>
    </defs>
	<g>
		<path d="M255.4766,190.5682 L213.3816,14.5302 C210.9506,4.3622 200.7376,-1.9078 190.5706,0.5232 L154.3116,9.1932 C163.5536,10.6512 181.8636,14.6552 202.0306,25.2352 L186.2426,68.9922 C186.2426,68.9922 173.1016,54.3152 137.8676,52.5302 C104.3736,50.8342 85.7426,87.0692 151.0696,108.4322 C201.0826,124.7872 217.0816,156.3132 216.2526,185.4682 C215.8206,200.6282 210.5166,212.9572 204.3706,222.2522 L241.4706,213.3832 C251.6376,210.9522 257.9076,200.7372 255.4766,190.5682 M113.6186,145.8842 C79.6096,133.0362 51.0426,110.0912 49.1456,80.2262 C47.9366,61.1762 52.7346,44.5312 65.1296,30.5182 L14.5306,42.6182 C4.3636,45.0492 -1.9084,55.2622 0.5236,65.4302 L42.6186,241.4702 C45.0496,251.6362 55.2626,257.9082 65.4296,255.4762 L87.0936,250.2962 C78.6846,247.5092 64.1476,242.2022 50.2126,234.7712 L70.4106,188.9522 C70.4106,188.9522 94.1816,210.1202 128.3146,210.1202 C162.4476,210.1202 177.6166,170.0612 113.6186,145.8842" fill="#EF4D37"></path>
		<path d="M49.1458,80.2263 C48.1048,63.8323 51.4978,49.2123 60.3648,36.5233 L15.6298,47.2213 C8.0188,49.0403 3.3048,56.7163 5.1248,64.3293 L29.3138,165.4813 C36.9388,156.0623 55.2418,136.6853 81.6848,129.4203 C63.2858,116.6493 50.3988,99.9483 49.1458,80.2263 L49.1458,80.2263 Z M208.7798,15.6283 C206.9598,8.0183 199.2848,3.3043 191.6698,5.1243 L165.3538,11.4173 C175.1298,13.7823 188.1378,17.9473 202.0308,25.2353 L186.2428,68.9923 C186.2428,68.9923 173.1018,54.3153 137.8678,52.5303 C104.3738,50.8343 85.7428,87.0693 151.0698,108.4323 C168.1808,114.0283 181.3088,121.4013 191.1448,129.8483 C191.5268,129.7163 191.9078,129.6023 192.2898,129.4623 C205.0088,124.8083 217.2128,108.1743 226.1648,88.3293 L208.7798,15.6283 Z" fill="url(#radialGradient-1)"></path>
	</g>
</svg>

<svg height="256" preserveAspectRatio="xMidYMid" viewBox="0 0 256 256" width="256" xmlns="http://www.w3.org/2000/svg" xmlns:xlink="http://www.w3.org/1999/xlink"><radialGradient id="a" cx="49.281635%" cy="43.274304%" r="65.683194%"><stop offset="0" stop-color="#f8953e"/><stop offset="1" stop-color="#f36e3e"/></radialGradient><path d="m255.4766 190.5682-42.095-176.038c-2.431-10.168-12.644-16.438-22.811-14.007l-36.259 8.67c9.242 1.458 27.552 5.462 47.719 16.042l-15.788 43.757s-13.141-14.677-48.375-16.462c-33.494-1.696-52.125 34.539 13.202 55.902 50.013 16.355 66.012 47.881 65.183 77.036-.432 15.16-5.736 27.489-11.882 36.784l37.1-8.869c10.167-2.431 16.437-12.646 14.006-22.815m-141.858-44.684c-34.009-12.848-62.576-35.793-64.473-65.658-1.209-19.05 3.589-35.695 15.984-49.708l-50.599 12.1c-10.167 2.431-16.439 12.644-14.007 22.812l42.095 176.04c2.431 10.166 12.644 16.438 22.811 14.006l21.664-5.18c-8.409-2.787-22.946-8.094-36.881-15.525l20.198-45.819s23.771 21.168 57.904 21.168 49.302-40.059-14.696-64.236" fill="#ef4d37"/><path d="m49.1458 80.2263c-1.041-16.394 2.352-31.014 11.219-43.703l-44.735 10.698c-7.611 1.819-12.325 9.495-10.505 17.108l24.189 101.152c7.625-9.419 25.928-28.796 52.371-36.061-18.399-12.771-31.286-29.472-32.539-49.194zm159.634-64.598c-1.82-7.61-9.495-12.324-17.11-10.504l-26.316 6.293c9.776 2.365 22.784 6.53 36.677 13.818l-15.788 43.757s-13.141-14.677-48.375-16.462c-33.494-1.696-52.125 34.539 13.202 55.902 17.111 5.596 30.239 12.969 40.075 21.416.382-.132.763-.246 1.145-.386 12.719-4.654 24.923-21.288 33.875-41.133z" fill="url(#a)"/></svg>
